X: 31410
T: Paddy Rainey's
R: jig
M: 6/8
K: Gmajor
|:~d3 GBd|gbg a2d|fga dfd|cdc ~A3|
[1 Bcd GBA|Bdg b2a|gfd cDD|DBA ~G3:|
[2 Bcd GBd|ceg a_ba|gfd cDD|DBA ~G3||
|:dGG GBc|dGA =FGD|A_Bd cde|~=f3 afe|
~d3 Bcd|Ac=f ~a3|gfd cDD|1 DBA ~G=FE:|2 DBA ~G3||

